X: 290
T: Marching Through Georgia
B: canberra pickers and fiddlers
B: tunes
M:2/4
L:1/8
Q: 1/4=100
K:G
V:1 
%R: march
z |\
B>A GA | BD DD | E>F GA | G4 |\
B,>C DD | ED EG | A>G AB | A4 |\
G>G AB |
cE EE | DG GA | B3 B |\
A2 A>A | AA BA | G4 | G3 |]| B |\
d3 B | d3 B | G>A GE | G3 B |\
d2 B2 |
d3 B | A>G AB | A4 |\
G>G AB | cE EE | DG GA | B3 B |\
A2 A>A | AA BA | G4 | G3 |]
% abcbook-tune_id 63da5934ee41de8792b43b27
% abcbook-tune_composer_id 
% abcbook-link-0 https://www.youtube.com/watch?v=JPJVSDze9OM
% abcbook-link-start-at-0 6
% abcbook-boost 0
% abcbook-difficulty 0
% abcbook-tags canberra pickers and fiddlers,old time tunes,© free
% abcbook-tablature 
% abcbook-transpose 
% abcbook-tuning GDAD
% abcbook-lastupdated 1696198112129
% abcbook-src-url https://tunebook.net/scrape/tunes.abc
% abcbook-soundfonts 
% abcbook-repeats 1
%%gchordfont "itim-music,Itim" 20

